www/images/logos/deleteme.svg

<svg width="160" height="23" viewBox="0 0 160 23" fill="none" xmlns="http://www.w3.org/2000/svg">
<path fill-rule="evenodd" clip-rule="evenodd" d="M72.1534 0H67.8164V21.4905H72.1534V0ZM10.7867 0.578125C8.44236 0.578125 6.27387 1.33116 4.51562 2.60553L10.7281 8.80359L17.0578 2.5476C15.2995 1.33116 13.131 0.578125 10.7867 0.578125ZM10.7867 21.8973C8.44236 21.8973 6.27387 21.1443 4.51562 19.8699L10.7281 13.6719L17.0578 19.9279C15.2995 21.1443 13.131 21.8973 10.7867 21.8973ZM2.05128 5.03906C0.761905 6.77684 0 8.92009 0 11.2371C0 13.5542 0.761905 15.6974 1.99267 17.4352L8.26374 11.2371L2.05128 5.03906ZM21.5098 11.2371C21.5098 8.92009 20.7479 6.77684 19.4585 5.03906L13.2461 11.2371L19.5172 17.4352C20.7479 15.6974 21.5098 13.5542 21.5098 11.2371ZM35.8102 17.9593H33.8761V4.81015H36.279C40.323 4.81015 42.3743 7.01133 42.3743 11.2978C42.3743 15.7002 40.1472 17.9593 35.8102 17.9593ZM44.0739 3.82541C42.1398 2.08764 39.5025 1.21875 36.0446 1.21875H29.4219V21.5507H35.3999C39.1508 21.5507 41.964 20.6818 43.9567 18.8861C45.9494 17.0904 46.9457 14.5417 46.9457 11.182C46.9457 7.99607 45.9493 5.56319 44.0739 3.82541ZM63.4134 20.4502C62.6515 20.8557 61.8896 21.0874 61.0105 21.2612C60.1314 21.4349 59.1351 21.4929 57.9629 21.4929C55.4428 21.4929 53.4501 20.8557 52.0435 19.5234C50.6369 18.1911 49.9336 16.2795 49.9336 13.8467C49.9336 11.3559 50.5783 9.4443 51.8677 8.05408C53.2156 6.66386 55.0325 5.96875 57.3182 5.96875C59.5453 5.96875 61.2449 6.60593 62.4757 7.82238C63.7065 9.03882 64.2926 10.7766 64.2926 12.9198V14.9473H54.3292C54.3878 16.1058 54.7395 16.9747 55.3841 17.6118C56.0288 18.249 56.9666 18.5387 58.1973 18.5387C59.1351 18.5387 60.0142 18.4228 60.8347 18.249C61.6552 18.0752 62.5343 17.7856 63.4134 17.3801V20.4502ZM60.2486 11.9351C60.2486 11.0083 59.9556 10.2553 59.4281 9.73393C58.9006 9.21259 58.1973 8.98089 57.3182 8.92297C56.4391 8.92297 55.7944 9.21259 55.2669 9.73393C54.7395 10.2553 54.4464 11.0083 54.3878 11.9351H60.2486ZM89.3783 20.4502C88.6164 20.8557 87.8545 21.0874 86.9754 21.2612C86.1548 21.4349 85.0999 21.4929 83.9277 21.4929C81.4076 21.4929 79.4149 20.8557 78.0083 19.5234C76.6017 18.1911 75.8984 16.2795 75.8984 13.8467C75.8984 11.3559 76.5431 9.4443 77.8325 8.05408C79.1805 6.66386 80.9387 5.96875 83.2831 5.96875C85.5102 5.96875 87.2098 6.60593 88.4406 7.82238C89.6713 9.03882 90.2574 10.7766 90.2574 12.9198V14.9473H80.294C80.3527 16.1058 80.7043 16.9747 81.349 17.6118C81.9937 18.249 82.9314 18.5387 84.1622 18.5387C85.0999 18.5387 85.979 18.4228 86.7995 18.249C87.6201 18.0752 88.4992 17.7856 89.3783 17.3801V20.4502ZM86.2135 11.9351C86.2135 11.0083 85.9204 10.2553 85.3929 9.73393C84.8655 9.21259 84.1622 8.98089 83.2831 8.92297C82.4039 8.92297 81.7592 9.21259 81.2318 9.73393C80.7043 10.2553 80.4113 11.0083 80.3527 11.9351H86.2135ZM99.0993 17.4931C98.7477 17.2034 98.5719 16.798 98.5719 16.2187V8.97798H103.085V5.96583H98.5719V2.66406H95.8173L94.5865 5.96583L92.1836 7.29813V8.97798H94.2349V16.3925C94.2349 18.0723 94.6451 19.3467 95.407 20.2156C96.2275 21.0845 97.4583 21.49 99.2166 21.49C100.799 21.49 102.147 21.2582 103.202 20.7369V17.4351C102.147 17.7827 101.209 17.8986 100.447 17.8986C99.9199 17.9565 99.451 17.7827 99.0993 17.4931ZM119.031 20.4502C118.269 20.8557 117.507 21.0874 116.628 21.2612C115.749 21.4349 114.752 21.4929 113.58 21.4929C111.06 21.4929 109.067 20.8557 107.661 19.5234C106.254 18.1911 105.551 16.2795 105.551 13.8467C105.551 11.3559 106.195 9.4443 107.485 8.05408C108.833 6.66386 110.65 5.96875 112.935 5.96875C115.162 5.96875 116.862 6.60593 118.093 7.82238C119.324 9.03882 119.91 10.7766 119.91 12.9198V14.9473H109.946C110.005 16.1058 110.357 16.9747 111.001 17.6118C111.646 18.249 112.584 18.5387 113.815 18.5387C114.752 18.5387 115.631 18.4228 116.452 18.249C117.272 18.0752 118.152 17.7856 119.031 17.3801V20.4502ZM115.866 11.9351C115.866 11.0083 115.573 10.2553 115.045 9.73393C114.518 9.21259 113.815 8.98089 112.935 8.92297C112.056 8.92297 111.412 9.21259 110.884 9.73393C110.357 10.2553 110.064 11.0083 110.005 11.9351H115.866ZM133.983 22.1288L141.661 3.4188H141.778C141.661 4.57731 141.602 5.6779 141.602 6.77849V22.1868H143.067V1.79688H140.899L133.631 19.6959H133.573L126.305 1.79688H124.078V22.1288H125.485V6.89435C125.485 5.67806 125.426 4.51968 125.368 3.3613L125.368 3.36087H125.485L133.104 22.1288H133.983ZM158.475 13.7292C158.475 12.0494 158.124 10.7171 157.362 9.79026C156.6 8.86344 155.545 8.34211 154.138 8.34211C152.673 8.34211 151.501 8.80552 150.622 9.73233C149.743 10.6591 149.274 11.9914 149.098 13.7292H158.475ZM159.413 21.2016C158.534 21.6071 157.713 21.8388 157.01 21.9547C156.307 22.0705 155.486 22.1285 154.666 22.1285C152.439 22.1285 150.739 21.4913 149.508 20.2169C148.219 18.8846 147.633 17.0889 147.633 14.7719C147.633 12.5128 148.219 10.6591 149.391 9.26892C150.563 7.8787 152.204 7.18359 154.197 7.18359C155.955 7.18359 157.362 7.76285 158.417 8.97929C159.472 10.1378 159.999 11.8177 159.999 13.8451V14.9457H149.039C149.098 16.9151 149.567 18.3633 150.505 19.4059C151.442 20.3907 152.849 20.912 154.607 20.912C155.486 20.912 156.248 20.8541 156.893 20.7382C157.596 20.6224 158.417 20.3328 159.413 19.9273V21.2016Z" fill="#19288A"/>
</svg>

<svg xmlns="http://www.w3.org/2000/svg" width="160" height="23" fill="none"><path fill="#19288A" fill-rule="evenodd" d="M72.153 0h-4.337v21.49h4.337zM10.787.578c-2.345 0-4.513.753-6.271 2.028l6.212 6.198 6.33-6.256a11.024 11.024 0 0 0-6.271-1.97m0 21.32c-2.345 0-4.513-.754-6.271-2.028l6.212-6.198 6.33 6.256a11.024 11.024 0 0 1-6.271 1.97M2.05 5.038A10.366 10.366 0 0 0 0 11.237c0 2.317.762 4.46 1.993 6.198l6.27-6.198zm19.459 6.198c0-2.317-.762-4.46-2.052-6.198l-6.212 6.198 6.271 6.198a10.723 10.723 0 0 0 1.993-6.198m14.3 6.722h-1.934V4.81h2.403c4.044 0 6.095 2.201 6.095 6.488 0 4.402-2.227 6.661-6.564 6.661m8.264-14.134c-1.934-1.737-4.571-2.606-8.03-2.606h-6.622V21.55H35.4c3.75 0 6.564-.87 8.557-2.665 1.992-1.796 2.989-4.344 2.989-7.704 0-3.186-.997-5.619-2.872-7.357m19.34 16.625c-.763.406-1.524.637-2.404.811-.879.174-1.875.232-3.047.232-2.52 0-4.513-.637-5.92-1.97-1.406-1.332-2.11-3.244-2.11-5.676 0-2.491.645-4.403 1.935-5.793 1.348-1.39 3.164-2.085 5.45-2.085 2.227 0 3.927.637 5.158 1.853 1.23 1.217 1.817 2.955 1.817 5.098v2.027h-9.964c.059 1.159.41 2.028 1.055 2.665s1.583.927 2.813.927c.938 0 1.817-.116 2.638-.29.82-.174 1.7-.463 2.578-.869zm-3.165-8.515c0-.927-.293-1.68-.82-2.201-.528-.521-1.232-.753-2.11-.811-.88 0-1.525.29-2.052.81-.528.522-.82 1.275-.88 2.202zm29.13 8.515c-.763.406-1.525.637-2.404.811-.82.174-1.875.232-3.047.232-2.52 0-4.513-.637-5.92-1.97-1.406-1.332-2.11-3.244-2.11-5.676 0-2.491.645-4.403 1.935-5.793 1.347-1.39 3.106-2.085 5.45-2.085 2.227 0 3.927.637 5.158 1.853 1.23 1.217 1.816 2.955 1.816 5.098v2.027h-9.963c.059 1.159.41 2.028 1.055 2.665s1.582.927 2.813.927c.938 0 1.817-.116 2.637-.29.821-.174 1.7-.463 2.58-.869zm-3.166-8.515c0-.927-.293-1.68-.82-2.201-.528-.521-1.23-.753-2.11-.811-.88 0-1.524.29-2.051.81-.528.522-.82 1.275-.88 2.202zM99.1 17.493c-.351-.29-.527-.695-.527-1.274V8.978h4.513V5.966h-4.513V2.664h-2.755l-1.23 3.302-2.403 1.332v1.68h2.05v7.414c0 1.68.411 2.955 1.173 3.824.82.868 2.051 1.274 3.81 1.274 1.582 0 2.93-.232 3.985-.753v-3.302a8.823 8.823 0 0 1-2.755.464 1.792 1.792 0 0 1-1.348-.406m19.932 2.957c-.762.406-1.524.637-2.403.811-.879.174-1.876.232-3.048.232-2.52 0-4.513-.637-5.919-1.97-1.407-1.332-2.11-3.244-2.11-5.676 0-2.491.644-4.403 1.934-5.793 1.348-1.39 3.165-2.085 5.45-2.085 2.227 0 3.927.637 5.158 1.853 1.231 1.217 1.817 2.955 1.817 5.098v2.027h-9.964c.059 1.159.411 2.028 1.055 2.665.645.637 1.583.927 2.814.927.937 0 1.816-.116 2.637-.29.82-.174 1.7-.463 2.579-.869zm-3.165-8.515c0-.927-.293-1.68-.821-2.201-.527-.521-1.23-.753-2.11-.811-.879 0-1.523.29-2.051.81-.527.522-.82 1.275-.879 2.202zm18.117 10.194 7.678-18.71h.117a33.165 33.165 0 0 0-.176 3.36v15.408h1.465V1.797H140.9l-7.268 17.899h-.058l-7.268-17.9h-2.227V22.13h1.407V6.894c0-1.216-.059-2.374-.117-3.533h.117l7.619 18.768zm24.492-8.4c0-1.68-.351-3.012-1.113-3.939s-1.817-1.448-3.224-1.448c-1.465 0-2.637.464-3.516 1.39-.879.927-1.348 2.26-1.524 3.997zm.938 7.473a9.46 9.46 0 0 1-2.403.753 14.84 14.84 0 0 1-2.344.174c-2.227 0-3.927-.638-5.158-1.912-1.289-1.332-1.875-3.128-1.875-5.445 0-2.26.586-4.113 1.758-5.503 1.172-1.39 2.813-2.085 4.806-2.085 1.758 0 3.165.579 4.22 1.795 1.055 1.159 1.582 2.839 1.582 4.866v1.1h-10.96c.059 1.97.528 3.418 1.466 4.46.937.986 2.344 1.507 4.102 1.507.879 0 1.641-.058 2.286-.174.703-.116 1.524-.405 2.52-.81z" clip-rule="evenodd"/></svg>
